Numix-GalliumOS/64/mimetypes/gnome-mime-application-magicpoint.svg

<svg xmlns="http://www.w3.org/2000/svg" xmlns:xlink="http://www.w3.org/1999/xlink" width="64px" height="64px" viewBox="0 0 64 64" version="1.1">
<g id="surface1">
<path style=" stroke:none;fill-rule:nonzero;fill:rgb(81.960784%,27.45098%,14.901961%);fill-opacity:1;" d="M 10.671875 0 C 9.296875 0 8 1.355469 8 2.789062 L 8 61.210938 C 8 62.566406 9.375 64 10.671875 64 L 53.328125 64 C 54.625 64 56 62.566406 56 61.210938 L 56 18 L 38 0 Z M 10.671875 0 "/>
<path style=" stroke:none;fill-rule:nonzero;fill:rgb(0%,0%,0%);fill-opacity:0.196078;" d="M 8 48 L 8 61.335938 C 8 62.632812 9.375 64 10.664062 64 L 53.335938 64 C 54.625 64 56 62.632812 56 61.335938 L 56 48 Z M 8 48 "/>
<path style=" stroke:none;fill-rule:nonzero;fill:rgb(100%,100%,100%);fill-opacity:1;" d="M 20.664062 51.269531 C 20.753906 51.515625 20.867188 51.828125 20.992188 52.203125 C 21.136719 52.589844 21.285156 53 21.441406 53.433594 C 21.589844 53.875 21.746094 54.320312 21.902344 54.769531 C 22.054688 55.21875 22.203125 55.636719 22.34375 56.015625 C 22.5 55.589844 22.664062 55.15625 22.828125 54.703125 C 23 54.238281 23.15625 53.804688 23.308594 53.386719 C 23.464844 52.957031 23.605469 52.558594 23.734375 52.1875 C 23.867188 51.820312 23.980469 51.515625 24.082031 51.269531 L 26.054688 51.269531 C 26.144531 52.203125 26.226562 53.121094 26.300781 54.007812 C 26.390625 54.902344 26.464844 55.777344 26.515625 56.664062 C 26.578125 57.523438 26.628906 58.398438 26.671875 59.292969 C 26.710938 60.171875 26.742188 61.070312 26.769531 61.988281 L 24.589844 61.988281 L 24.703125 53.664062 L 23.238281 58.203125 L 21.5 58.203125 L 20.089844 53.664062 L 20.1875 61.988281 L 18 61.988281 C 18.039062 61.113281 18.082031 60.203125 18.113281 59.261719 C 18.171875 58.308594 18.222656 57.367188 18.269531 56.433594 C 18.328125 55.5 18.386719 54.589844 18.449219 53.710938 C 18.523438 52.835938 18.605469 52.023438 18.695312 51.269531 L 20.664062 51.269531 "/>
<path style=" stroke:none;fill-rule:nonzero;fill:rgb(100%,100%,100%);fill-opacity:1;" d="M 33.234375 52.886719 C 32.667969 52.886719 32.191406 52.976562 31.808594 53.164062 C 31.421875 53.34375 31.09375 53.605469 30.839844 53.941406 C 30.59375 54.261719 30.414062 54.65625 30.300781 55.113281 C 30.195312 55.566406 30.144531 56.074219 30.144531 56.621094 C 30.144531 57.910156 30.375 58.851562 30.816406 59.464844 C 31.265625 60.0625 31.929688 60.367188 32.808594 60.367188 C 32.945312 60.367188 33.101562 60.359375 33.273438 60.351562 C 33.4375 60.335938 33.59375 60.316406 33.734375 60.292969 L 33.734375 56.382812 L 36.109375 56.382812 L 36.109375 61.734375 C 35.824219 61.824219 35.382812 61.933594 34.773438 62.046875 C 34.183594 62.160156 33.464844 62.21875 32.621094 62.21875 C 31.867188 62.21875 31.195312 62.105469 30.585938 61.875 C 29.996094 61.628906 29.488281 61.277344 29.0625 60.816406 C 28.636719 60.34375 28.308594 59.761719 28.078125 59.0625 C 27.851562 58.359375 27.734375 57.546875 27.734375 56.621094 C 27.734375 55.710938 27.867188 54.910156 28.136719 54.222656 C 28.40625 53.515625 28.777344 52.925781 29.234375 52.449219 C 29.703125 51.976562 30.25 51.625 30.882812 51.394531 C 31.511719 51.148438 32.183594 51.03125 32.90625 51.03125 C 33.363281 51.03125 33.78125 51.066406 34.144531 51.132812 C 34.511719 51.1875 34.832031 51.261719 35.101562 51.34375 C 35.371094 51.425781 35.59375 51.507812 35.765625 51.597656 C 35.945312 51.695312 36.078125 51.761719 36.167969 51.8125 L 35.554688 53.507812 C 35.265625 53.34375 34.921875 53.203125 34.503906 53.074219 C 34.09375 52.949219 33.667969 52.886719 33.234375 52.886719 "/>
<path style=" stroke:none;fill-rule:nonzero;fill:rgb(100%,100%,100%);fill-opacity:1;" d="M 41.183594 51.148438 C 42.707031 51.148438 43.878906 51.433594 44.722656 52 C 45.558594 52.558594 45.976562 53.46875 45.976562 54.738281 C 45.976562 56.015625 45.550781 56.949219 44.699219 57.523438 C 43.863281 58.089844 42.675781 58.375 41.125 58.375 L 40.28125 58.375 L 40.28125 61.988281 L 37.90625 61.988281 L 37.90625 51.410156 C 38.132812 51.367188 38.398438 51.328125 38.675781 51.285156 C 38.96875 51.253906 39.265625 51.230469 39.570312 51.222656 C 39.863281 51.195312 40.148438 51.179688 40.4375 51.171875 C 40.714844 51.15625 40.96875 51.148438 41.183594 51.148438 M 41.453125 53.007812 C 41.3125 53.007812 41.117188 53.007812 40.855469 53.023438 C 40.617188 53.023438 40.421875 53.03125 40.28125 53.058594 L 40.28125 56.523438 L 41.25 56.523438 C 42.003906 56.523438 42.574219 56.382812 42.960938 56.121094 C 43.347656 55.84375 43.542969 55.375 43.542969 54.71875 C 43.542969 54.097656 43.347656 53.65625 42.960938 53.402344 C 42.59375 53.140625 42.085938 53.007812 41.453125 53.007812 "/>
<path style=" stroke:none;fill-rule:nonzero;fill:rgb(0%,0%,0%);fill-opacity:0.196078;" d="M 42 18 L 56 32 L 56 18 Z M 42 18 "/>
<path style=" stroke:none;fill-rule:nonzero;fill:rgb(100%,100%,100%);fill-opacity:0.392157;" d="M 38 0 L 55.984375 18 L 40.757812 18 C 39.410156 18 38 16.574219 38 15.226562 Z M 38 0 "/>
<path style=" stroke:none;fill-rule:nonzero;fill:rgb(100%,100%,100%);fill-opacity:1;" d="M 16 24 L 26 24 L 26 30 L 16 30 Z M 16 24 "/>
<path style=" stroke:none;fill-rule:nonzero;fill:rgb(100%,100%,100%);fill-opacity:1;" d="M 16 34 L 26 34 L 26 40 L 16 40 Z M 16 34 "/>
<path style=" stroke:none;fill-rule:nonzero;fill:rgb(100%,100%,100%);fill-opacity:1;" d="M 40 21.984375 L 40 30 L 48 30 C 48 25.570312 44.417969 21.984375 40 21.984375 Z M 40 21.984375 "/>
<path style=" stroke:none;fill-rule:nonzero;fill:rgb(100%,100%,100%);fill-opacity:1;" d="M 38.003906 24 C 33.585938 24 30 27.578125 30 32 C 30 36.421875 33.585938 40 38.003906 40 C 42.421875 40 46 36.421875 46 32 L 38.003906 32 Z M 38.003906 24 "/>
</g>
</svg>

<svg xmlns="http://www.w3.org/2000/svg" viewBox="0 0 64 64">
 <g>
  <path d="m 10.672 0 c -1.375 0 -2.672 1.355 -2.672 2.789 l 0 58.42 c 0 1.355 1.375 2.789 2.672 2.789 l 42.656 0 c 1.297 0 2.672 -1.434 2.672 -2.789 l 0 -43.21 l -18 -18 m -27.328 0" style="fill:#d04526;fill-opacity:1;stroke:none;fill-rule:nonzero"/>
  <path d="m 8 48 l 0 13.336 c 0 1.297 1.375 2.664 2.664 2.664 l 42.672 0 c 1.289 0 2.664 -1.367 2.664 -2.664 l 0 -13.336 m -48 0" style="fill:#000;fill-opacity:0.196;stroke:none;fill-rule:nonzero"/>
  <path d="m 20.664 51.27 c 0.09 0.246 0.203 0.559 0.328 0.934 c 0.145 0.387 0.293 0.797 0.449 1.23 c 0.148 0.441 0.305 0.887 0.461 1.336 c 0.152 0.449 0.301 0.867 0.441 1.246 c 0.156 -0.426 0.32 -0.859 0.484 -1.313 c 0.172 -0.465 0.328 -0.898 0.48 -1.316 c 0.156 -0.43 0.297 -0.828 0.426 -1.199 c 0.133 -0.367 0.246 -0.672 0.348 -0.918 l 1.973 0 c 0.09 0.934 0.172 1.852 0.246 2.738 c 0.09 0.895 0.164 1.77 0.215 2.656 c 0.063 0.859 0.113 1.734 0.156 2.629 c 0.039 0.879 0.07 1.777 0.098 2.695 l -2.18 0 l 0.113 -8.324 l -1.465 4.539 l -1.738 0 l -1.41 -4.539 l 0.098 8.324 l -2.188 0 c 0.039 -0.875 0.082 -1.785 0.113 -2.727 c 0.059 -0.953 0.109 -1.895 0.156 -2.828 c 0.059 -0.934 0.117 -1.844 0.18 -2.723 c 0.074 -0.875 0.156 -1.688 0.246 -2.441 l 1.969 0" style="fill:#fff;fill-opacity:1;stroke:none;fill-rule:nonzero"/>
  <path d="m 33.23 52.887 c -0.566 0 -1.043 0.09 -1.426 0.277 c -0.387 0.18 -0.715 0.441 -0.969 0.777 c -0.246 0.32 -0.426 0.715 -0.539 1.172 c -0.105 0.453 -0.156 0.961 -0.156 1.508 c 0 1.289 0.23 2.23 0.672 2.844 c 0.449 0.598 1.113 0.902 1.992 0.902 c 0.137 0 0.293 -0.008 0.465 -0.016 c 0.164 -0.016 0.32 -0.035 0.461 -0.059 l 0 -3.91 l 2.375 0 l 0 5.352 c -0.285 0.09 -0.727 0.199 -1.336 0.313 c -0.59 0.113 -1.309 0.172 -2.152 0.172 c -0.754 0 -1.426 -0.113 -2.035 -0.344 c -0.59 -0.246 -1.098 -0.598 -1.523 -1.059 c -0.426 -0.473 -0.754 -1.055 -0.984 -1.754 c -0.227 -0.703 -0.344 -1.516 -0.344 -2.441 c 0 -0.91 0.133 -1.711 0.402 -2.398 c 0.27 -0.707 0.641 -1.297 1.098 -1.773 c 0.469 -0.473 1.016 -0.824 1.648 -1.055 c 0.629 -0.246 1.301 -0.363 2.023 -0.363 c 0.457 0 0.875 0.035 1.238 0.102 c 0.367 0.055 0.688 0.129 0.957 0.211 c 0.27 0.082 0.492 0.164 0.664 0.254 c 0.18 0.098 0.313 0.164 0.402 0.215 l -0.613 1.695 c -0.289 -0.164 -0.633 -0.305 -1.051 -0.434 c -0.41 -0.125 -0.836 -0.188 -1.27 -0.188" style="fill:#fff;fill-opacity:1;stroke:none;fill-rule:nonzero"/>
  <path d="m 41.18 51.15 c 1.523 0 2.695 0.285 3.539 0.852 c 0.836 0.559 1.254 1.469 1.254 2.738 c 0 1.277 -0.426 2.211 -1.277 2.785 c -0.836 0.566 -2.023 0.852 -3.574 0.852 l -0.844 0 l 0 3.613 l -2.375 0 l 0 -10.578 c 0.227 -0.043 0.492 -0.082 0.77 -0.125 c 0.293 -0.031 0.59 -0.055 0.895 -0.063 c 0.293 -0.027 0.578 -0.043 0.867 -0.051 c 0.277 -0.016 0.531 -0.023 0.746 -0.023 m 0.27 1.859 c -0.141 0 -0.336 0 -0.598 0.016 c -0.238 0 -0.434 0.008 -0.574 0.035 l 0 3.465 l 0.969 0 c 0.754 0 1.324 -0.141 1.711 -0.402 c 0.387 -0.277 0.582 -0.746 0.582 -1.402 c 0 -0.621 -0.195 -1.063 -0.582 -1.316 c -0.367 -0.262 -0.875 -0.395 -1.508 -0.395" style="fill:#fff;fill-opacity:1;stroke:none;fill-rule:nonzero"/>
  <path d="m 42 18 l 14 14 l 0 -14 m -14 0" style="fill:#000;fill-opacity:0.196;stroke:none;fill-rule:nonzero"/>
  <path d="m 38 0 l 17.984 18 l -15.227 0 c -1.348 0 -2.758 -1.426 -2.758 -2.773 m 0 -15.227" style="fill:#fff;fill-opacity:0.392;stroke:none;fill-rule:nonzero"/>
  <path d="m 16 24 l 10 0 l 0 6 l -10 0 m 0 -6" style="fill:#fff;fill-opacity:1;stroke:none;fill-rule:nonzero"/>
  <path d="m 16 34 l 10 0 l 0 6 l -10 0 m 0 -6" style="fill:#fff;fill-opacity:1;stroke:none;fill-rule:nonzero"/>
  <path d="m 40 21.984 l 0 8.02 l 8 0 c 0 -4.43 -3.582 -8.02 -8 -8.02 m 0 0" style="fill:#fff;fill-opacity:1;stroke:none;fill-rule:nonzero"/>
  <path d="m 38 24 c -4.418 0 -8 3.578 -8 8 c 0 4.422 3.586 8 8 8 c 4.418 0 7.996 -3.578 7.996 -8 l -7.996 0 m 0 -8" style="fill:#fff;fill-opacity:1;stroke:none;fill-rule:nonzero"/>
 </g>
</svg>
